X:0
T:The Oslo Waltz
G:accordion waltz
C:Felix Burns?
S:Jim Paterson (with one minor change)
N:its full weirdness is only apparent when you see the chords
M:3/4
L:1/8
Q:3/4=56
K:A
% -- A part
  e2|fe ce Ac|E2 A2 c2|F6|E4 A2|G3 =G ^G2|e4 d2| c2   c=c ^cd|c4    e2|
     fe ce Ac|E2 A2 c2|F6|E4 A2|G3 =G ^G2|e4 G2|(3ABA GA   ce|a2 z2  :|
% -- B part
c/d^d/|:e6|a6|a2 g2 f2|c6|e3 f e2|d2 c2 B2|  A2  AG AB|c6          |
        e6|a6|a2 g2 f2|c6|e3 f e2|d2 c2 B2|(3ABA GA ce|[1 a2 z2 e2:|\
                                                       [2 a2 z2   ||
% -- A part
|:e2|fe ce Ac|E2 A2 c2|F6|E4 A2|G3 =G ^G2|e4 d2| c2   c=c ^cd|c4    e2|
     fe ce Ac|E2 A2 c2|F6|E4 A2|G3 =G ^G2|e4 G2|(3ABA GA   ce|a2 z2  :|
% -- C part
K:D
d/^d/e/^e/|:f6-|f6    |d6-  |d6      |F2 A2 d2|f2  a2 ^a2|   b6-|b6        |
            g6 |e4  d2|c6   |c4    B2|A6      |A2 ^G2 =G2|   F6 |AB cd e=f |
            f6-|f6    |d6-  |d6      |F2 A2 d2|f2  a2 ^a2|   b6-|b6        |
            d'6|c'4 b2|a4 f2|d2 c2 B2|A6      |e6        |[1 d6 |AB cd e=f:|\
                                                          [2 d6-|d2 z2    ||
% -- A part
K:A
|:e2|fe ce Ac|E2 A2 c2|F6|E4 A2|G3 =G ^G2|e4 d2| c2   c=c ^cd|c4    e2|
     fe ce Ac|E2 A2 c2|F6|E4 A2|G3 =G ^G2|e4 G2|(3ABA GA   ce|a2 z2  :|


17. Cautionary Notes
=== ================

All the above is somewhat oversimplified: in fact the pitches of Scottish
traditional music are rarely taken from the twelve-note equally-tempered
scale (except for instruments like the accordion that offer no choice in
the matter).  The precise tuning of notes in the scale may be modified to
get purer harmonies or (particularly with Cape Breton fiddling) to imitate
the sound of the bagpipe scale on other instruments.  When this happens,
relative modes need not have exactly the same pitch set; a fiddler may
bend the notes of an A mixolydian tune to bring it closer to the bagpipe
pitch set, while playing a D major tune in something close to the equally
tempered pitch set.  ABC does not yet handle microtonality: when it does
I'll return to this issue.

The other oversimplification I've made is in reducing modes to bare
sequences of notes.  In Middle Eastern and Indian music theory, the
notion of a mode (raga, makam, dastgah) includes a set of melodic
formulas used with it - short fragments that are used to put melodies
together, particularly at cadences.  This happens to some extent in
Scottish traditional music; think of all the hornpipes in G major that
end with BGG or GBG.  In modern music theory the "sequence of pitches"
idea of mode I've used here is more often called "octave species", and
"mode" now tends to be used in the West Asian manner, as this is also
helpful in analyzing mediaeval and Renaissance art music.  I hope to
come back to this some time and write a comparable document on the
melodic formulas of Scottish music.


18. References
=== ==========

A good reference to music theory as applied to jazz, which includes a
fair bit of material on modes, is Marc Sabatella's on-line textbook at
<http://www.outsideshore.com/primer/primer/index.html> .  Peter Wilton
has a page <http://www.beaufort.demon.co.uk/modes.htm> with a tutorial on
the modes of Gregorian chant.  A compendious encyclopaedia of folk music
(albeit with an American slant) is on Bill Markwick's "Folk File" at
<http://www.cgrg.ohio-state.edu/~spencer/FF/> ; it has links to information
about intonation and temperament.

B.H. Bronson, "The Traditional Tunes of the Child Ballads", is a massive
four-volume collection which uses a scheme similar to mine.  Phil Taylor
uses both the Bronson scheme and something like mine in the tutorial
material for BarFly <http://www.barfly.dial.pipex.com>.

There are many good collections of Scottish tunes, but there are so many
good Scottish tunes to collect that no one book can possibly do it all.
The best value for money, and the first one any instrumentalist should
get, is Kerr's "Merry Melodies", a four-volume set with hundreds of tunes
in each volume.  This has been continuously in print for over a century.
Less densely printed (and hence more readable) collections of about the
same period are the "Skye Collection" and the recently reprinted "Athole
Collection" and "Glen Collection", both aimed at fiddlers.  There are many
competing collections of bagpipe music, with a lot of overlap in their
traditional material; the Scots Guards book is the most comprehensive, but
costs an arm and a leg.  Players of other instruments have to make do with
books aimed at either fiddlers or pipers; the last comparable collections
for the flute were done 150 years ago and no large anthology of Scottish
music has ever been compiled for any other instrument, though there are
many smaller collections for piano.

For songs, there has only ever been one try at a comprehensive collection,
the "Scots Musical Museum" of Johnson and Burns, and that was more than
200 years ago.  It has been reprinted, and it says something about song
scholarship in Scotland that it doesn't really have any competition.  For
the bare tunes, Nathaniel Gow's "Vocal Melodies of Scotland" is comparable,
but has never been reprinted since the early 19th century.  G.F. Graham's
"The Popular Songs and Melodies of Scotland" has good historical notes but
is not on the same scale.  A very much bigger effort is the Greig-Duncan
Folksong Collection, in eight volumes from the School of Scottish Studies
and Aberdeen University Press; however, this is basically one man's work,
what he could collect from the north-east of Scotland at the turn of the
century, and there are many songs familiar all over Scotland that he didn't
get round to.  Campbell & Collinson's "Hebridean Folksongs" is the largest
collection of Gaelic songs edited to a reasonable standard, but it leaves
out many of the most popular ones.  Most practical editions of Gaelic songs
are in sol-fa notation and are hard to come by outside Scotland. 

=============================================================================
==  (c) Jack Campin    http://www.purr.demon.co.uk/jack/       April 2002  ==
==        11 Third Street, Newtongrange, Midlothian EH22 4PU, Scotland     ==
=============================================================================

